X:1
T:Dixie
C:Daniel D. Emmett
O:USA
N:1860 tune popular in both the North and South
M:4/4
L:1/4
K:D
|:A/2F/2|"D"D D D/2E/2F/2G/2|"D7"AAAF
w:Oh I      wish  I  was _in  the land of   cot-ton,
w:In *      Dix-  ie La-nd whe-re  I    was  bo- rn,
|"G"BB B3/2A/2|B3/2A/2 B/2c/2d/2e/2
w: old times there are not  for-got-ten, Look a-
w: ear-ly    on    one fros-ty morn-ing, Look a-
|"D"f3 d/2A/2|"Bm"d3 A/2F/2|"Em"A3/2- "A7"A3/2 E/2F/2
w: way! Look a-      way! Look a-      way!     Dix-ie
w: way! Look a-      way! Look a-      way!     Dix-ie
|1"D"D2 z:|2"D"D2 z||
w:Land!
w:_Land!
|A/2A/2|"D"df "D7"ed|"G"Bd2 B|"E"e3 B|"A"e3 A
w:Then I      wish I     were in   Dix-ie, Hoo- ray! Hoo- ray! In
|"D"d f "D7"e d|"G"B c "E7"d B
w: Dix-ie    Land I'll   take my    stand, to
|"D"A F d F|"E7"F E-"A7"E F|"D"D3 F|"A7"E3 B
w:   live and die in      Dix- ie. A-   way! A-   way! A-
|"D"A F "Bm7"d f|"A7"e d- "D"d F|D3 F|"A7"E3 B
w: way  down   south in     Dix-  ie!  A-   way! A-    way! A-
|"D"A F "A7"!fermata!f d|"D"e d2||
w: way down  south in     Dix-ie!





